Newaita-dark/apps/64/window-duplicate.svg

<?xml version="1.0" encoding="UTF-8"?>
<svg xmlns="http://www.w3.org/2000/svg" xmlns:xlink="http://www.w3.org/1999/xlink" width="64pt" height="64pt" viewBox="0 0 64 64" version="1.1">
<defs>
<linearGradient id="linear0" gradientUnits="userSpaceOnUse" x1="254" y1="233.5" x2="254" y2="254.666672" gradientTransform="matrix(0.125012,0,0,0.125012,-0.00000763012,26.877566)">
<stop offset="0" style="stop-color:rgb(0%,0%,0%);stop-opacity:0.27451;"/>
<stop offset="1" style="stop-color:rgb(0%,0%,0%);stop-opacity:0;"/>
</linearGradient>
<radialGradient id="radial0" gradientUnits="userSpaceOnUse" cx="450.908936" cy="189.579361" fx="450.908936" fy="189.579361" r="21.166656" gradientTransform="matrix(0.000000348341,-0.156265,-0.281277,-0.000000203077,106.907382,127.190661)">
<stop offset="0" style="stop-color:rgb(0%,0%,0%);stop-opacity:0.313726;"/>
<stop offset="0.222222" style="stop-color:rgb(0%,0%,0%);stop-opacity:0.27451;"/>
<stop offset="1" style="stop-color:rgb(0%,0%,0%);stop-opacity:0;"/>
</radialGradient>
<radialGradient id="radial1" gradientUnits="userSpaceOnUse" cx="450.908936" cy="189.579361" fx="450.908936" fy="189.579361" r="21.166656" gradientTransform="matrix(-0.000000348341,0.156265,0.281277,0.000000203077,-43.401323,-15.054962)">
<stop offset="0" style="stop-color:rgb(0%,0%,0%);stop-opacity:0.313726;"/>
<stop offset="0.222222" style="stop-color:rgb(0%,0%,0%);stop-opacity:0.27451;"/>
<stop offset="1" style="stop-color:rgb(0%,0%,0%);stop-opacity:0;"/>
</radialGradient>
<radialGradient id="radial2" gradientUnits="userSpaceOnUse" cx="450.908936" cy="189.579361" fx="450.908936" fy="189.579361" r="21.166656" gradientTransform="matrix(-0.000000348341,-0.156265,0.281277,-0.000000203077,-43.401323,127.190661)">
<stop offset="0" style="stop-color:rgb(0%,0%,0%);stop-opacity:0.313726;"/>
<stop offset="0.222222" style="stop-color:rgb(0%,0%,0%);stop-opacity:0.27451;"/>
<stop offset="1" style="stop-color:rgb(0%,0%,0%);stop-opacity:0;"/>
</radialGradient>
<radialGradient id="radial3" gradientUnits="userSpaceOnUse" cx="450.908936" cy="189.579361" fx="450.908936" fy="189.579361" r="21.166656" gradientTransform="matrix(0.000000348341,0.156265,-0.281277,0.000000203077,106.907378,-15.054963)">
<stop offset="0" style="stop-color:rgb(0%,0%,0%);stop-opacity:0.313726;"/>
<stop offset="0.222222" style="stop-color:rgb(0%,0%,0%);stop-opacity:0.27451;"/>
<stop offset="1" style="stop-color:rgb(0%,0%,0%);stop-opacity:0;"/>
</radialGradient>
<linearGradient id="linear1" gradientUnits="userSpaceOnUse" x1="306.916656" y1="-25.791676" x2="305.954559" y2="-135.329163" gradientTransform="matrix(0.150699,0,0,0.434824,-11.708026,67.282696)">
<stop offset="0" style="stop-color:rgb(74.117649%,74.117649%,74.117649%);stop-opacity:1;"/>
<stop offset="1" style="stop-color:rgb(87.843138%,87.843138%,87.843138%);stop-opacity:1;"/>
</linearGradient>
<linearGradient id="linear2" gradientUnits="userSpaceOnUse" x1="349.25" y1="233.5" x2="349.25" y2="11.25" >
<stop offset="0" style="stop-color:rgb(74.117649%,74.117649%,74.117649%);stop-opacity:1;"/>
<stop offset="1" style="stop-color:rgb(87.843138%,87.843138%,87.843138%);stop-opacity:1;"/>
</linearGradient>
<linearGradient id="linear3" gradientUnits="userSpaceOnUse" x1="306.916656" y1="-25.791676" x2="305.954559" y2="-135.329163" gradientTransform="matrix(4.556143,0,0,13.146184,-353.972656,2034.180176)">
<stop offset="0" style="stop-color:rgb(25.882354%,25.882354%,25.882354%);stop-opacity:1;"/>
<stop offset="1" style="stop-color:rgb(38.039216%,38.039216%,38.039216%);stop-opacity:1;"/>
</linearGradient>
<linearGradient id="linear4" gradientUnits="userSpaceOnUse" x1="1320" y1="1695.118164" x2="1320" y2="855.118103" gradientTransform="matrix(1,0,0,1,0,0)">
<stop offset="0" style="stop-color:rgb(25.882354%,25.882354%,25.882354%);stop-opacity:1;"/>
<stop offset="1" style="stop-color:rgb(38.039216%,38.039216%,38.039216%);stop-opacity:1;"/>
</linearGradient>
<linearGradient id="linear5" gradientUnits="userSpaceOnUse" x1="349.25" y1="-158.083328" x2="349.25" y2="-115.75" gradientTransform="matrix(0.749999,0,0,0.749999,71.437767,-2.479259)">
<stop offset="0" style="stop-color:rgb(40.000001%,73.333335%,41.568628%);stop-opacity:1;"/>
<stop offset="1" style="stop-color:rgb(50.588238%,78.039217%,51.764709%);stop-opacity:1;"/>
</linearGradient>
<linearGradient id="linear6" gradientUnits="userSpaceOnUse" x1="349.25" y1="-158.083328" x2="349.25" y2="-115.75" gradientTransform="matrix(0.750001,0,0,0.750001,124.353661,-2.47902)">
<stop offset="0" style="stop-color:rgb(100%,83.529413%,30.980393%);stop-opacity:1;"/>
<stop offset="1" style="stop-color:rgb(100%,87.843138%,50.980395%);stop-opacity:1;"/>
</linearGradient>
<linearGradient id="linear7" gradientUnits="userSpaceOnUse" x1="349.25" y1="-158.083328" x2="349.25" y2="-115.75" gradientTransform="matrix(0.75,0,0,0.75,177.270798,-2.479186)">
<stop offset="0" style="stop-color:rgb(89.803922%,45.09804%,45.09804%);stop-opacity:1;"/>
<stop offset="1" style="stop-color:rgb(93.725491%,60.392159%,60.392159%);stop-opacity:1;"/>
</linearGradient>
<linearGradient id="linear8" gradientUnits="userSpaceOnUse" x1="349.25" y1="-158.083328" x2="349.25" y2="-115.75" gradientTransform="matrix(0.5,0,0,0.5,201.08342,111.458298)">
<stop offset="0" style="stop-color:rgb(40.000001%,73.333335%,41.568628%);stop-opacity:1;"/>
<stop offset="1" style="stop-color:rgb(50.588238%,78.039217%,51.764709%);stop-opacity:1;"/>
</linearGradient>
<linearGradient id="linear9" gradientUnits="userSpaceOnUse" x1="349.25" y1="-158.083328" x2="349.25" y2="-115.75" gradientTransform="matrix(0.5,0,0,0.5,238.125137,111.458267)">
<stop offset="0" style="stop-color:rgb(100%,83.529413%,30.980393%);stop-opacity:1;"/>
<stop offset="1" style="stop-color:rgb(100%,87.843138%,50.980395%);stop-opacity:1;"/>
</linearGradient>
<linearGradient id="linear10" gradientUnits="userSpaceOnUse" x1="349.25" y1="-158.083328" x2="349.25" y2="-115.75" gradientTransform="matrix(0.5,0,0,0.5,275.166565,111.458344)">
<stop offset="0" style="stop-color:rgb(89.803922%,45.09804%,45.09804%);stop-opacity:1;"/>
<stop offset="1" style="stop-color:rgb(93.725491%,60.392159%,60.392159%);stop-opacity:1;"/>
</linearGradient>
</defs>
<g id="surface1">
<path style=" stroke:none;fill-rule:nonzero;fill:url(#linear0);" d="M 9.261719 56.066406 L 54.246094 56.066406 L 54.246094 58.714844 L 9.261719 58.714844 Z M 9.261719 56.066406 "/>
<path style=" stroke:none;fill-rule:nonzero;fill:url(#radial0);" d="M 54.246094 56.066406 L 59.535156 56.066406 L 59.535156 53.421875 L 54.246094 53.421875 Z M 54.246094 56.066406 "/>
<path style=" stroke:none;fill-rule:nonzero;fill:url(#radial1);" d="M 9.261719 56.066406 L 3.96875 56.066406 L 3.96875 58.714844 L 9.261719 58.714844 Z M 9.261719 56.066406 "/>
<path style=" stroke:none;fill-rule:nonzero;fill:url(#radial2);" d="M 9.261719 56.066406 L 3.96875 56.066406 L 3.96875 53.421875 L 9.261719 53.421875 Z M 9.261719 56.066406 "/>
<path style=" stroke:none;fill-rule:nonzero;fill:url(#radial3);" d="M 54.246094 56.066406 L 59.535156 56.066406 L 59.535156 58.714844 L 54.246094 58.714844 Z M 54.246094 56.066406 "/>
<path style=" stroke:none;fill-rule:nonzero;fill:url(#linear1);" d="M 6.613281 8.4375 L 56.890625 8.4375 C 58.351562 8.4375 59.535156 9.621094 59.535156 11.085938 L 59.535156 53.421875 C 59.535156 54.882812 58.351562 56.066406 56.890625 56.066406 L 6.613281 56.066406 C 5.152344 56.066406 3.96875 54.882812 3.96875 53.421875 L 3.96875 11.085938 C 3.96875 9.621094 5.152344 8.4375 6.613281 8.4375 Z M 6.613281 8.4375 "/>
<path style=" stroke:none;fill-rule:nonzero;fill:rgb(3.921569%,5.098039%,5.490196%);fill-opacity:0.235294;" d="M 3.96875 19.023438 L 59.535156 19.023438 L 59.535156 20.34375 L 3.96875 20.34375 Z M 3.96875 19.023438 "/>
<path style="fill-rule:nonzero;fill:url(#linear2);stroke-width:3;stroke-linecap:round;stroke-linejoin:round;stroke:rgb(12.941177%,12.941177%,12.941177%);stroke-opacity:1;stroke-miterlimit:4;" d="M 211.667287 11.259643 L 455.081542 11.259643 C 466.767926 11.259643 476.235772 20.727489 476.235772 32.413873 L 476.235772 212.334192 C 476.235772 224.020576 466.767926 233.488421 455.081542 233.488421 L 211.667287 233.488421 C 199.980903 233.488421 190.513057 224.020576 190.513057 212.334192 L 190.513057 32.413873 C 190.513057 20.727489 199.980903 11.259643 211.667287 11.259643 Z M 211.667287 11.259643 " transform="matrix(0.125012,0,0,0.125012,0,26.877566)"/>
<path style=" stroke:none;fill-rule:nonzero;fill:rgb(3.921569%,5.098039%,5.490196%);fill-opacity:0.235294;" d="M 23.816406 36.222656 L 59.535156 36.222656 L 59.535156 37.207031 L 23.816406 37.207031 Z M 23.816406 36.222656 "/>
<path style=" stroke:none;fill-rule:nonzero;fill:rgb(0%,0%,0%);fill-opacity:0.235294;" d="M 6.613281 56.09375 C 5.148438 56.09375 3.96875 54.914062 3.96875 53.449219 L 3.96875 52.761719 C 3.96875 54.226562 5.148438 55.40625 6.613281 55.40625 L 56.890625 55.40625 C 58.355469 55.40625 59.535156 54.226562 59.535156 52.761719 L 59.535156 53.449219 C 59.535156 54.914062 58.355469 56.09375 56.890625 56.09375 Z M 6.613281 56.09375 "/>
<path style="fill-rule:nonzero;fill:url(#linear3);stroke-width:11.338583;stroke-linecap:round;stroke-linejoin:miter;stroke:rgb(12.941177%,12.941177%,12.941177%);stroke-opacity:1;stroke-miterlimit:4;" d="M 199.941547 255.093763 C 155.654435 255.093763 119.988548 290.759651 119.988548 335.164861 L 119.988548 575.141957 L 1799.946319 575.141957 L 1799.946319 335.164861 C 1799.946319 290.759651 1764.280431 255.093763 1719.99332 255.093763 Z M 199.941547 255.093763 " transform="matrix(0.0330761,0,0,0.0330761,0,0)"/>
<path style=" stroke:none;fill-rule:nonzero;fill:rgb(100%,100%,100%);fill-opacity:0.392157;" d="M 6.613281 8.589844 C 5.148438 8.589844 3.96875 9.769531 3.96875 11.238281 L 3.96875 11.925781 C 3.96875 10.457031 5.148438 9.277344 6.613281 9.277344 L 56.890625 9.277344 C 58.355469 9.277344 59.535156 10.457031 59.535156 11.925781 L 59.535156 11.238281 C 59.535156 9.769531 58.355469 8.589844 56.890625 8.589844 Z M 6.613281 8.589844 "/>
<path style="fill-rule:nonzero;fill:url(#linear4);stroke-width:11.338583;stroke-linecap:round;stroke-linejoin:round;stroke:rgb(12.941177%,12.941177%,12.941177%);stroke-opacity:1;stroke-miterlimit:4;" d="M 800.002386 855.154602 C 755.715274 855.154602 720.049387 890.82049 720.049387 935.107601 L 720.049387 1095.131698 L 1799.946319 1095.131698 L 1799.946319 935.107601 C 1799.946319 890.82049 1764.280431 855.154602 1719.99332 855.154602 Z M 800.002386 855.154602 " transform="matrix(0.0330761,0,0,0.0330761,0,0)"/>
<path style=" stroke:none;fill-rule:nonzero;fill:rgb(12.941177%,12.941177%,12.941177%);fill-opacity:1;" d="M 6.613281 8.25 C 5.046875 8.25 3.78125 9.519531 3.78125 11.085938 L 3.78125 53.421875 C 3.78125 54.988281 5.046875 56.253906 6.613281 56.253906 L 56.890625 56.253906 C 58.457031 56.253906 59.722656 54.988281 59.722656 53.421875 L 59.722656 11.085938 C 59.722656 9.519531 58.457031 8.25 56.890625 8.25 Z M 6.613281 8.625 L 56.890625 8.625 C 58.257812 8.625 59.347656 9.71875 59.347656 11.085938 L 59.347656 53.421875 C 59.347656 54.789062 58.257812 55.878906 56.890625 55.878906 L 6.613281 55.878906 C 5.25 55.878906 4.15625 54.789062 4.15625 53.421875 L 4.15625 11.085938 C 4.15625 9.71875 5.25 8.625 6.613281 8.625 Z M 6.613281 8.625 "/>
<path style="fill-rule:nonzero;fill:url(#linear5);stroke-width:3;stroke-linecap:round;stroke-linejoin:miter;stroke:rgb(12.941177%,12.941177%,12.941177%);stroke-opacity:1;stroke-miterlimit:4;" d="M 333.374414 -121.040223 C 342.154826 -121.040223 349.247898 -113.94715 349.247898 -105.166739 C 349.247898 -96.386327 342.154826 -89.293254 333.374414 -89.293254 C 324.594003 -89.293254 317.50093 -96.386327 317.50093 -105.166739 C 317.50093 -113.94715 324.594003 -121.040223 333.374414 -121.040223 Z M 333.374414 -121.040223 " transform="matrix(0.125012,0,0,0.125012,0,26.877566)"/>
<path style="fill-rule:nonzero;fill:url(#linear6);stroke-width:3;stroke-linecap:round;stroke-linejoin:miter;stroke:rgb(12.941177%,12.941177%,12.941177%);stroke-opacity:1;stroke-miterlimit:4;" d="M 386.30686 -121.040223 C 395.056024 -121.040223 402.180344 -113.94715 402.180344 -105.166739 C 402.180344 -96.386327 395.056024 -89.293254 386.30686 -89.293254 C 377.526448 -89.293254 370.402128 -96.386327 370.402128 -105.166739 C 370.402128 -113.94715 377.526448 -121.040223 386.30686 -121.040223 Z M 386.30686 -121.040223 " transform="matrix(0.125012,0,0,0.125012,0,26.877566)"/>
<path style="fill-rule:nonzero;fill:url(#linear7);stroke-width:3;stroke-linecap:round;stroke-linejoin:miter;stroke:rgb(12.941177%,12.941177%,12.941177%);stroke-opacity:1;stroke-miterlimit:4;" d="M 439.208058 -121.040223 C 447.988469 -121.040223 455.081542 -113.94715 455.081542 -105.166739 C 455.081542 -96.386327 447.988469 -89.293254 439.208058 -89.293254 C 430.427646 -89.293254 423.334574 -96.386327 423.334574 -105.166739 C 423.334574 -113.94715 430.427646 -121.040223 439.208058 -121.040223 Z M 439.208058 -121.040223 " transform="matrix(0.125012,0,0,0.125012,0,26.877566)"/>
<path style="fill-rule:nonzero;fill:url(#linear8);stroke-width:3;stroke-linecap:round;stroke-linejoin:miter;stroke:rgb(12.941177%,12.941177%,12.941177%);stroke-opacity:1;stroke-miterlimit:4;" d="M 375.714121 32.413873 C 381.557313 32.413873 386.30686 37.16342 386.30686 43.006612 C 386.30686 48.849804 381.557313 53.568103 375.714121 53.568103 C 369.870929 53.568103 365.121383 48.849804 365.121383 43.006612 C 365.121383 37.16342 369.870929 32.413873 375.714121 32.413873 Z M 375.714121 32.413873 " transform="matrix(0.125012,0,0,0.125012,0,26.877566)"/>
<path style="fill-rule:nonzero;fill:url(#linear9);stroke-width:3;stroke-linecap:round;stroke-linejoin:miter;stroke:rgb(12.941177%,12.941177%,12.941177%);stroke-opacity:1;stroke-miterlimit:4;" d="M 412.741835 32.413873 C 418.585027 32.413873 423.334574 37.16342 423.334574 43.006612 C 423.334574 48.849804 418.585027 53.568103 412.741835 53.568103 C 406.898643 53.568103 402.180344 48.849804 402.180344 43.006612 C 402.180344 37.16342 406.898643 32.413873 412.741835 32.413873 Z M 412.741835 32.413873 " transform="matrix(0.125012,0,0,0.125012,0,26.877566)"/>
<path style="fill-rule:nonzero;fill:url(#linear10);stroke-width:3;stroke-linecap:round;stroke-linejoin:miter;stroke:rgb(12.941177%,12.941177%,12.941177%);stroke-opacity:1;stroke-miterlimit:4;" d="M 449.800796 32.413873 C 455.643988 32.413873 460.362288 37.16342 460.362288 43.006612 C 460.362288 48.849804 455.643988 53.568103 449.800796 53.568103 C 443.957604 53.568103 439.208058 48.849804 439.208058 43.006612 C 439.208058 37.16342 443.957604 32.413873 449.800796 32.413873 Z M 449.800796 32.413873 " transform="matrix(0.125012,0,0,0.125012,0,26.877566)"/>
</g>
</svg>

<svg xmlns="http://www.w3.org/2000/svg" width="64pt" height="64pt" viewBox="0 0 64 64"><defs><linearGradient id="a" gradientUnits="userSpaceOnUse" x1="254" y1="233.5" x2="254" y2="254.667" gradientTransform="translate(0 26.878) scale(.12501)"><stop offset="0" stop-opacity=".275"/><stop offset="1" stop-opacity="0"/></linearGradient><radialGradient id="b" gradientUnits="userSpaceOnUse" cx="450.909" cy="189.579" fx="450.909" fy="189.579" r="21.167" gradientTransform="matrix(0 -.15626 -.28128 0 106.907 127.19)"><stop offset="0" stop-opacity=".314"/><stop offset=".222" stop-opacity=".275"/><stop offset="1" stop-opacity="0"/></radialGradient><radialGradient id="c" gradientUnits="userSpaceOnUse" cx="450.909" cy="189.579" fx="450.909" fy="189.579" r="21.167" gradientTransform="matrix(0 .15626 .28128 0 -43.401 -15.055)"><stop offset="0" stop-opacity=".314"/><stop offset=".222" stop-opacity=".275"/><stop offset="1" stop-opacity="0"/></radialGradient><radialGradient id="d" gradientUnits="userSpaceOnUse" cx="450.909" cy="189.579" fx="450.909" fy="189.579" r="21.167" gradientTransform="matrix(0 -.15626 .28128 0 -43.401 127.19)"><stop offset="0" stop-opacity=".314"/><stop offset=".222" stop-opacity=".275"/><stop offset="1" stop-opacity="0"/></radialGradient><radialGradient id="e" gradientUnits="userSpaceOnUse" cx="450.909" cy="189.579" fx="450.909" fy="189.579" r="21.167" gradientTransform="matrix(0 .15626 -.28128 0 106.907 -15.055)"><stop offset="0" stop-opacity=".314"/><stop offset=".222" stop-opacity=".275"/><stop offset="1" stop-opacity="0"/></radialGradient><linearGradient id="f" gradientUnits="userSpaceOnUse" x1="306.917" y1="-25.792" x2="305.955" y2="-135.329" gradientTransform="matrix(.1507 0 0 .43482 -11.708 67.283)"><stop offset="0" stop-color="#bdbdbd"/><stop offset="1" stop-color="#e0e0e0"/></linearGradient><linearGradient id="g" gradientUnits="userSpaceOnUse" x1="349.25" y1="233.5" x2="349.25" y2="11.25"><stop offset="0" stop-color="#bdbdbd"/><stop offset="1" stop-color="#e0e0e0"/></linearGradient><linearGradient id="h" gradientUnits="userSpaceOnUse" x1="306.917" y1="-25.792" x2="305.955" y2="-135.329" gradientTransform="matrix(4.55614 0 0 13.14618 -353.973 2034.18)"><stop offset="0" stop-color="#424242"/><stop offset="1" stop-color="#616161"/></linearGradient><linearGradient id="i" gradientUnits="userSpaceOnUse" x1="1320" y1="1695.118" x2="1320" y2="855.118"><stop offset="0" stop-color="#424242"/><stop offset="1" stop-color="#616161"/></linearGradient><linearGradient id="j" gradientUnits="userSpaceOnUse" x1="349.25" y1="-158.083" x2="349.25" y2="-115.75" gradientTransform="matrix(.75 0 0 .75 71.438 -2.48)"><stop offset="0" stop-color="#66bb6a"/><stop offset="1" stop-color="#81c784"/></linearGradient><linearGradient id="k" gradientUnits="userSpaceOnUse" x1="349.25" y1="-158.083" x2="349.25" y2="-115.75" gradientTransform="matrix(.75 0 0 .75 124.354 -2.479)"><stop offset="0" stop-color="#ffd54f"/><stop offset="1" stop-color="#ffe082"/></linearGradient><linearGradient id="l" gradientUnits="userSpaceOnUse" x1="349.25" y1="-158.083" x2="349.25" y2="-115.75" gradientTransform="matrix(.75 0 0 .75 177.27 -2.48)"><stop offset="0" stop-color="#e57373"/><stop offset="1" stop-color="#ef9a9a"/></linearGradient><linearGradient id="m" gradientUnits="userSpaceOnUse" x1="349.25" y1="-158.083" x2="349.25" y2="-115.75" gradientTransform="matrix(.5 0 0 .5 201.083 111.458)"><stop offset="0" stop-color="#66bb6a"/><stop offset="1" stop-color="#81c784"/></linearGradient><linearGradient id="n" gradientUnits="userSpaceOnUse" x1="349.25" y1="-158.083" x2="349.25" y2="-115.75" gradientTransform="matrix(.5 0 0 .5 238.125 111.458)"><stop offset="0" stop-color="#ffd54f"/><stop offset="1" stop-color="#ffe082"/></linearGradient><linearGradient id="o" gradientUnits="userSpaceOnUse" x1="349.25" y1="-158.083" x2="349.25" y2="-115.75" gradientTransform="matrix(.5 0 0 .5 275.167 111.458)"><stop offset="0" stop-color="#e57373"/><stop offset="1" stop-color="#ef9a9a"/></linearGradient></defs><path d="M9.262 56.066h44.984v2.649H9.262zm0 0" fill="url(#a)"/><path d="M54.246 56.066h5.29v-2.644h-5.29zm0 0" fill="url(#b)"/><path d="M9.262 56.066H3.969v2.649h5.293zm0 0" fill="url(#c)"/><path d="M9.262 56.066H3.969v-2.644h5.293zm0 0" fill="url(#d)"/><path d="M54.246 56.066h5.29v2.649h-5.29zm0 0" fill="url(#e)"/><path d="M6.613 8.438h50.278a2.645 2.645 0 0 1 2.644 2.648v42.336a2.644 2.644 0 0 1-2.644 2.644H6.613a2.644 2.644 0 0 1-2.644-2.644V11.086a2.645 2.645 0 0 1 2.644-2.649zm0 0" fill="url(#f)"/><path d="M211.667 11.26h243.415c11.686 0 21.154 9.467 21.154 21.154v179.92c0 11.687-9.468 21.154-21.154 21.154H211.667c-11.686 0-21.154-9.467-21.154-21.154V32.414c0-11.687 9.468-21.154 21.154-21.154zm0 0" transform="translate(0 26.878) scale(.12501)" fill="url(#g)" stroke-width="3" stroke-linecap="round" stroke-linejoin="round" stroke="#212121"/><path d="M6.613 56.094a2.639 2.639 0 0 1-2.644-2.645v-.687a2.639 2.639 0 0 0 2.644 2.644h50.278a2.639 2.639 0 0 0 2.644-2.644v.687a2.639 2.639 0 0 1-2.644 2.645zm0 0" fill-opacity=".235"/><path d="M199.942 255.094c-44.288 0-79.953 35.666-79.953 80.07v239.978h1679.957V335.165c0-44.405-35.666-80.071-79.953-80.071zm0 0" transform="scale(.03308)" fill="url(#h)" stroke-width="11.339" stroke-linecap="round" stroke="#212121"/><path d="M6.613 8.59a2.64 2.64 0 0 0-2.644 2.648v.688a2.64 2.64 0 0 1 2.644-2.649h50.278a2.64 2.64 0 0 1 2.644 2.649v-.688a2.64 2.64 0 0 0-2.644-2.648zm0 0" fill="#fff" fill-opacity=".392"/><path d="M800.002 855.155c-44.287 0-79.953 35.665-79.953 79.953v160.024h1079.897V935.108c0-44.288-35.666-79.953-79.953-79.953zm0 0" transform="scale(.03308)" fill="url(#i)" stroke-width="11.339" stroke-linecap="round" stroke-linejoin="round" stroke="#212121"/><path d="M6.613 8.25a2.832 2.832 0 0 0-2.832 2.836v42.336a2.83 2.83 0 0 0 2.832 2.832h50.278a2.83 2.83 0 0 0 2.832-2.832V11.086A2.832 2.832 0 0 0 56.89 8.25zm0 .375h50.278a2.447 2.447 0 0 1 2.457 2.46v42.337a2.444 2.444 0 0 1-2.457 2.457H6.613a2.447 2.447 0 0 1-2.457-2.457V11.086a2.45 2.45 0 0 1 2.457-2.461zm0 0" fill="#212121"/><path d="M333.374-121.04c8.78 0 15.874 7.093 15.874 15.873s-7.093 15.874-15.874 15.874c-8.78 0-15.873-7.093-15.873-15.874 0-8.78 7.093-15.873 15.873-15.873zm0 0" transform="translate(0 26.878) scale(.12501)" fill="url(#j)" stroke-width="3" stroke-linecap="round" stroke="#212121"/><path d="M386.307-121.04c8.749 0 15.873 7.093 15.873 15.873s-7.124 15.874-15.873 15.874c-8.78 0-15.905-7.093-15.905-15.874 0-8.78 7.124-15.873 15.905-15.873zm0 0" transform="translate(0 26.878) scale(.12501)" fill="url(#k)" stroke-width="3" stroke-linecap="round" stroke="#212121"/><path d="M439.208-121.04c8.78 0 15.874 7.093 15.874 15.873s-7.094 15.874-15.874 15.874c-8.78 0-15.873-7.093-15.873-15.874 0-8.78 7.093-15.873 15.873-15.873zm0 0" transform="translate(0 26.878) scale(.12501)" fill="url(#l)" stroke-width="3" stroke-linecap="round" stroke="#212121"/><path d="M375.714 32.414c5.843 0 10.593 4.75 10.593 10.593s-4.75 10.561-10.593 10.561-10.593-4.718-10.593-10.561c0-5.844 4.75-10.593 10.593-10.593zm0 0" transform="translate(0 26.878) scale(.12501)" fill="url(#m)" stroke-width="3" stroke-linecap="round" stroke="#212121"/><path d="M412.742 32.414c5.843 0 10.593 4.75 10.593 10.593s-4.75 10.561-10.593 10.561a10.548 10.548 0 0 1-10.562-10.561c0-5.844 4.719-10.593 10.562-10.593zm0 0" transform="translate(0 26.878) scale(.12501)" fill="url(#n)" stroke-width="3" stroke-linecap="round" stroke="#212121"/><path d="M449.8 32.414c5.844 0 10.562 4.75 10.562 10.593a10.548 10.548 0 0 1-10.561 10.561c-5.843 0-10.593-4.718-10.593-10.561 0-5.844 4.75-10.593 10.593-10.593zm0 0" transform="translate(0 26.878) scale(.12501)" fill="url(#o)" stroke-width="3" stroke-linecap="round" stroke="#212121"/></svg>
